modules/feathericon/icons/sitemap.svg

<?xml version="1.0" encoding="UTF-8"?>
<svg width="24px" height="24px" viewBox="0 0 24 24" version="1.1" xmlns="http://www.w3.org/2000/svg" xmlns:xlink="http://www.w3.org/1999/xlink">
    <!-- Generator: sketchtool 52.2 (67145) - http://www.bohemiancoding.com/sketch -->
    <title>sitemap</title>
    <desc>Created with sketchtool.</desc>
    <g id="web-app" stroke="none" stroke-width="1" fill="none" fill-rule="evenodd">
        <g id="sitemap" fill="#000000" fill-rule="nonzero">
            <path d="M19,15 C20.1045695,15 21,15.8954305 21,17 L21,19 C21,20.1045695 20.1045695,21 19,21 L17,21 C15.8954305,21 15,20.1045695 15,19 L15,17 C15,15.8954305 15.8954305,15 17,15 L17,13 L7,13 L7,15 C8.1045695,15 9,15.8954305 9,17 L9,19 C9,20.1045695 8.1045695,21 7,21 L5,21 C3.8954305,21 3,20.1045695 3,19 L3,17 C3,15.8954305 3.8954305,15 5,15 L5,13 C5,11.8954305 5.8954305,11 7,11 L11,11 L11,9 C9.8954305,9 9,8.1045695 9,7 L9,5 C9,3.8954305 9.8954305,3 11,3 L13,3 C14.1045695,3 15,3.8954305 15,5 L15,7 C15,8.1045695 14.1045695,9 13,9 L13,11 L17,11 C18.1045695,11 19,11.8954305 19,13 L19,15 Z M5,17 L5,19 L7,19 L7,17 L5,17 Z M17,17 L17,19 L19,19 L19,17 L17,17 Z M11,5 L11,7 L13,7 L13,5 L11,5 Z" id="Shape"></path>
        </g>
    </g>
</svg>

<svg width="24" height="24" viewBox="0 0 24 24" xmlns="http://www.w3.org/2000/svg"><path d="M19 15a2 2 0 0 1 2 2v2a2 2 0 0 1-2 2h-2a2 2 0 0 1-2-2v-2a2 2 0 0 1 2-2v-2H7v2a2 2 0 0 1 2 2v2a2 2 0 0 1-2 2H5a2 2 0 0 1-2-2v-2a2 2 0 0 1 2-2v-2a2 2 0 0 1 2-2h4V9a2 2 0 0 1-2-2V5a2 2 0 0 1 2-2h2a2 2 0 0 1 2 2v2a2 2 0 0 1-2 2v2h4a2 2 0 0 1 2 2v2zM5 17v2h2v-2H5zm12 0v2h2v-2h-2zM11 5v2h2V5h-2z" fill="#000" fill-rule="nonzero"/></svg>
